sail-club/img/instagram.svg

<svg width="18" height="18" viewBox="0 0 18 18" fill="none" xmlns="http://www.w3.org/2000/svg">
<path d="M9 6.3C8.28392 6.3 7.59716 6.58446 7.09081 7.09081C6.58446 7.59716 6.3 8.28392 6.3 9C6.3 9.71608 6.58446 10.4028 7.09081 10.9092C7.59716 11.4155 8.28392 11.7 9 11.7C9.71608 11.7 10.4028 11.4155 10.9092 10.9092C11.4155 10.4028 11.7 9.71608 11.7 9C11.7 8.28392 11.4155 7.59716 10.9092 7.09081C10.4028 6.58446 9.71608 6.3 9 6.3ZM9 4.5C10.1935 4.5 11.3381 4.97411 12.182 5.81802C13.0259 6.66193 13.5 7.80653 13.5 9C13.5 10.1935 13.0259 11.3381 12.182 12.182C11.3381 13.0259 10.1935 13.5 9 13.5C7.80653 13.5 6.66193 13.0259 5.81802 12.182C4.97411 11.3381 4.5 10.1935 4.5 9C4.5 7.80653 4.97411 6.66193 5.81802 5.81802C6.66193 4.97411 7.80653 4.5 9 4.5ZM14.85 4.275C14.85 4.57337 14.7315 4.85952 14.5205 5.0705C14.3095 5.28147 14.0234 5.4 13.725 5.4C13.4266 5.4 13.1405 5.28147 12.9295 5.0705C12.7185 4.85952 12.6 4.57337 12.6 4.275C12.6 3.97663 12.7185 3.69048 12.9295 3.4795C13.1405 3.26853 13.4266 3.15 13.725 3.15C14.0234 3.15 14.3095 3.26853 14.5205 3.4795C14.7315 3.69048 14.85 3.97663 14.85 4.275ZM9 1.8C6.7734 1.8 6.4098 1.8063 5.3739 1.8522C4.6683 1.8855 4.1949 1.98 3.7557 2.151C3.3651 2.3022 3.0834 2.4831 2.7837 2.7837C2.50201 3.05586 2.28542 3.38813 2.1501 3.7557C1.9791 4.1967 1.8846 4.6692 1.8522 5.3739C1.8054 6.3675 1.8 6.7149 1.8 9C1.8 11.2266 1.8063 11.5902 1.8522 12.6261C1.8855 13.3308 1.98 13.8051 2.1501 14.2434C2.3031 14.6349 2.4831 14.9166 2.7819 15.2154C3.0852 15.5178 3.3669 15.6987 3.7539 15.8481C4.1985 16.02 4.6719 16.1154 5.3739 16.1478C6.3675 16.1946 6.7149 16.2 9 16.2C11.2266 16.2 11.5902 16.1937 12.6261 16.1478C13.3299 16.1145 13.8042 16.02 14.2434 15.8499C14.6331 15.6978 14.9166 15.5169 15.2154 15.2181C15.5187 14.9148 15.6996 14.6331 15.849 14.2461C16.02 13.8024 16.1154 13.3281 16.1478 12.6261C16.1946 11.6325 16.2 11.2851 16.2 9C16.2 6.7734 16.1937 6.4098 16.1478 5.3739C16.1145 4.6701 16.02 4.1949 15.849 3.7557C15.7134 3.3885 15.4972 3.05636 15.2163 2.7837C14.9443 2.50186 14.612 2.28525 14.2443 2.1501C13.8033 1.9791 13.3299 1.8846 12.6261 1.8522C11.6325 1.8054 11.2851 1.8 9 1.8ZM9 0C11.4453 0 11.7504 0.00899995 12.7098 0.0539999C13.6683 0.0989999 14.3208 0.2493 14.895 0.4725C15.489 0.7011 15.9894 1.0107 16.4898 1.5102C16.9474 1.96011 17.3016 2.50433 17.5275 3.105C17.7498 3.6783 17.901 4.3317 17.946 5.2902C17.9883 6.2496 18 6.5547 18 9C18 11.4453 17.991 11.7504 17.946 12.7098C17.901 13.6683 17.7498 14.3208 17.5275 14.895C17.3022 15.496 16.948 16.0404 16.4898 16.4898C16.0398 16.9473 15.4956 17.3014 14.895 17.5275C14.3217 17.7498 13.6683 17.901 12.7098 17.946C11.7504 17.9883 11.4453 18 9 18C6.5547 18 6.2496 17.991 5.2902 17.946C4.3317 17.901 3.6792 17.7498 3.105 17.5275C2.50409 17.302 1.95977 16.9478 1.5102 16.4898C1.05247 16.04 0.698338 15.4957 0.4725 14.895C0.2493 14.3217 0.0989999 13.6683 0.0539999 12.7098C0.0116999 11.7504 0 11.4453 0 9C0 6.5547 0.00899995 6.2496 0.0539999 5.2902C0.0989999 4.3308 0.2493 3.6792 0.4725 3.105C0.697713 2.50396 1.05192 1.95959 1.5102 1.5102C1.9599 1.05231 2.50419 0.698156 3.105 0.4725C3.6792 0.2493 4.3308 0.0989999 5.2902 0.0539999C6.2496 0.0116999 6.5547 0 9 0Z" fill="#163152"/>
</svg>

<svg fill="none" xmlns="http://www.w3.org/2000/svg" width="18" height="18" viewBox="0 0 18 18"><path d="M9 6.3a2.7 2.7 0 100 5.4 2.7 2.7 0 000-5.4zm0-1.8a4.5 4.5 0 110 9 4.5 4.5 0 010-9zm5.85-.22a1.12 1.12 0 11-2.25 0 1.12 1.12 0 012.25 0zM9 1.8c-2.23 0-2.59 0-3.63.05-.7.04-1.18.13-1.61.3-.4.15-.68.33-.98.63-.28.28-.5.6-.63.98-.17.44-.27.9-.3 1.61-.04 1-.05 1.34-.05 3.63 0 2.23 0 2.59.05 3.63.04.7.13 1.18.3 1.61.15.4.33.68.63.98.3.3.59.48.97.63.45.17.92.27 1.62.3 1 .04 1.34.05 3.63.05 2.23 0 2.59 0 3.63-.05.7-.04 1.17-.13 1.61-.3.4-.15.68-.33.98-.63.3-.3.48-.59.63-.97.17-.45.27-.92.3-1.62.04-1 .05-1.34.05-3.63 0-2.23 0-2.59-.05-3.63a4.9 4.9 0 00-.3-1.61c-.14-.37-.35-.7-.63-.98a2.6 2.6 0 00-.98-.63 4.89 4.89 0 00-1.61-.3c-1-.04-1.34-.05-3.63-.05zM9 0c2.45 0 2.75 0 3.71.05s1.61.2 2.18.42c.6.23 1.1.54 1.6 1.04.46.45.81 1 1.04 1.6.22.57.37 1.22.42 2.18.04.96.05 1.26.05 3.71s0 2.75-.05 3.71-.2 1.61-.42 2.18a4.4 4.4 0 01-1.04 1.6c-.45.46-1 .81-1.6 1.04-.57.22-1.22.37-2.18.42-.96.04-1.26.05-3.71.05s-2.75 0-3.71-.05a6.65 6.65 0 01-2.19-.42 4.4 4.4 0 01-1.59-1.04c-.46-.45-.81-1-1.04-1.6a6.63 6.63 0 01-.42-2.18C.01 11.75 0 11.45 0 9s0-2.75.05-3.71.2-1.61.42-2.19a4.4 4.4 0 011.04-1.59c.45-.46 1-.81 1.6-1.04A6.63 6.63 0 015.29.05C6.25.01 6.55 0 9 0z" fill="#163152"/></svg>
